rospo-icon-theme-classic-common/16x16/apps/sgt-launcher.svg

<svg height="16" width="16" xmlns="http://www.w3.org/2000/svg"><path d="m8 0h-7.2c-.4432 0-.8.3568-.8.8v7.2h8z" fill="#8e8e8e"/><path d="m8 0h7.2c.4432 0 .8.3568.8.8v7.2h-8z" fill="#e4e4e4"/><path d="m8 16h-7.2c-.4432 0-.8-.3568-.8-.8v-7.2h8z" fill="#45792a"/><path d="m8 16h7.2c.4432 0 .8-.3568.8-.8v-7.2h-8z" fill="#8e8e8e"/><circle cx="4" cy="4" fill="#fff" r="2"/><path d="m14.070352 26.759076 4.018844 6.960842 4.018844 6.960843h-8.037688-8.037689l4.018844-6.960842z" fill="#ffdd4c" transform="matrix(.3110347 0 0 .35915193 -.376368 -.610574)"/><path d="m14 9.4-1 1.04v4.56h1z" fill="#3f3f3f"/><path d="m14.070352 26.759076 4.018844 6.960842 4.018844 6.960843h-8.037688-8.037689l4.018844-6.960842z" fill="#e33939" transform="matrix(0 .24882776 .28732154 0 2.311541 7.498906)"/><path d="m12 2v2h-2v1h2v2h1v-2h2v-1h-2v-2z" fill="#3f3f3f"/></svg>

<svg xmlns="http://www.w3.org/2000/svg" width="16" height="16" version="1">
 <path style="fill:#8e8e8e" d="M 8,0 0.8,0 C 0.3568,0 0,0.3568 0,0.8 L 0,8 8,8 Z"/>
 <path style="fill:#cccccc" d="m 8,0 7.2,0 C 15.6432,0 16,0.3568 16,0.8 L 16,8 8,8 Z"/>
 <path style="fill:#45792a" d="M 8,16 0.8,16 C 0.3568,16 0,15.6432 0,15.2 L 0,8 8,8 Z"/>
 <path style="fill:#8e8e8e" d="m 8,16 7.2,0 C 15.6432,16 16,15.6432 16,15.2 L 16,8 8,8 Z"/>
 <circle style="fill:#ffffff" cx="4" cy="4" r="2"/>
 <path style="fill:#ffdd4c" d="m 14.070352,26.759076 4.018844,6.960842 4.018844,6.960843 -8.037688,0 -8.037689,0 4.018844,-6.960842 z" transform="matrix(0.3110347,0,0,0.35915193,-0.37636754,-0.61057385)"/>
 <path style="fill:#3f3f3f" d="m 14,9.4 -1,1.04 0,4.56 1,0 z"/>
 <path style="fill:#e33939" d="m 14.070352,26.759076 4.018844,6.960842 4.018844,6.960843 -8.037688,0 -8.037689,0 4.018844,-6.960842 z" transform="matrix(0,0.24882776,0.28732154,0,2.311541,7.498906)"/>
 <path style="fill:#3f3f3f" d="m 12,2 0,2 -2,0 0,1 2,0 0,2 1,0 0,-2 2,0 0,-1 -2,0 0,-2 -1,0 z"/>
</svg>
